packages/ui-icons/src/Service-logos/24/Youtube.svg

<?xml version="1.0" encoding="UTF-8"?>
<svg viewBox="0 0 32 32" version="1.1" xmlns="http://www.w3.org/2000/svg" xmlns:xlink="http://www.w3.org/1999/xlink">
    <!-- Generator: Sketch 48.2 (47327) - http://www.bohemiancoding.com/sketch -->
    <title>logo/24/youtube</title>
    <desc>Created with Sketch.</desc>
    <defs></defs>
    <g id="Icons" stroke="none" stroke-width="1" fill="none" fill-rule="evenodd">
        <g id="logo/24/youtube">
            <g id="Youtube" transform="translate(4.000000, 4.000000)">
                <circle id="Oval-2-Copy-2" fill="#FF0000" cx="12" cy="12" r="12"></circle>
                <path d="M18.7077192,8.54411165 C18.5426859,7.93974451 18.0806031,7.4674793 17.4892665,7.29880942 C16.3980277,7.00000846 12.0062292,7.00000846 12.0062292,7.00000846 C12.0062292,7.00000846 7.62551819,6.99404437 6.52319195,7.29880942 C5.93185535,7.4674793 5.46977247,7.93974451 5.30473922,8.54411165 C5.09788271,9.68594318 4.99590146,10.8450358 5.00012604,12.0062665 C4.9967001,13.1631154 5.098678,14.3177774 5.30473922,15.4553004 C5.46977247,16.0596675 5.93185535,16.5319327 6.52319195,16.7006026 C7.61326364,17 12.0062292,17 12.0062292,17 C12.0062292,17 16.3863567,17 17.4892665,16.7006026 C18.0806031,16.5319327 18.5426859,16.0596675 18.7077192,15.4553004 C18.9094754,14.3173654 19.0071551,13.1627068 18.9994943,12.0062665 C19.0079536,10.845446 18.9102707,9.68635674 18.7077192,8.54411165 Z M10.6045417,14.1479716 L10.6045417,9.85800091 L14.2598999,12.0062665 L10.6045417,14.1479716 Z" id="Shape-Copy-2" fill="#FFFFFF" fill-rule="nonzero"></path>
            </g>
        </g>
    </g>
</svg>

<svg viewBox="0 0 32 32" xmlns="http://www.w3.org/2000/svg"><g transform="translate(4 4)" fill="none" fill-rule="evenodd"><circle fill="red" cx="12" cy="12" r="12"/><path d="M18.708 8.544A1.774 1.774 0 0 0 17.489 7.3C16.398 7 12.006 7 12.006 7s-4.38-.006-5.483.299a1.774 1.774 0 0 0-1.218 1.245A19.035 19.035 0 0 0 5 12.006a19.035 19.035 0 0 0 .305 3.45A1.774 1.774 0 0 0 6.523 16.7c1.09.299 5.483.299 5.483.299s4.38 0 5.483-.3a1.774 1.774 0 0 0 1.219-1.245c.201-1.138.3-2.292.291-3.449.009-1.16-.089-2.32-.291-3.462Zm-8.103 5.604v-4.29l3.655 2.148-3.655 2.142Z" fill="#FFF" fill-rule="nonzero"/></g></svg>
